!!!COM: Haydn, Franz Joseph
!!!OTL: String Quartet in C Major
!!!OPS: Opus 74
!!!ONM: No. 1
!!!OMD: Menuetto: Allegretto
!!!OMV: 3
!!!SCT: H III:72
!!!SCA: Thematisch-bibliographisches Werkevererzeichnis (A. van Hoboken)
!!!YOR: Trautwein Edition
!!!ENC: Frances Bennion
!!!CDT: 1732/3/31/-1809/5/31/
!!!CNT: Oesterreich
!!!YEC: Copyright (c) 1994, 2000 Center for Computer Assisted Research in the Humanities
!!!YEM: Rights to all derivative editions reserved.
!!!YEM: Refer to licensing agreement for further details.
!!!YEN: United States of America
**kern	**kern	**kern	**kern
*k[]	*k[]	*k[]	*k[]
*a:	*a:	*a:	*a:
*clefF4	*clefC3	*clefF	*clefF
*M3/4	*M3/4	*M3/4	*M3/4
4CC	2G	2.c	2.e
4C	.	.	.
4C	4c	.	.
=2	=2	=2	=2
4CC	4B	2.d	2.f
4C	4G	.	.
4C	4F	.	.
=3	=3	=3	=3
4CC	4E	2e	2g
4C	4c	.	.
4C	8F	8a	8cc
.	8A	8f	8a
=4	=4	=4	=4
4CC	4c	4e	4g
4r	4r	4r	4cc
4r	4r	4r	4cc
=5	=5	=5	=5
2.r	4c	4e	[2.cc
.	4d	4f	.
.	4e	4g	.
=6	=6	=6	=6
2.r	2.f	2.a	4cc]
.	.	.	4cc#
.	.	.	[4dd
=7	=7	=7	=7
2.r	2.g	2.b	4dd]
.	.	.	4ff
.	.	.	4b
=8	=8	=8	=8
2.r	4c	4e	[2.cc
.	4d	4f	.
.	4e	4g	.
=9	=9	=9	=9
2.r	2.f	[2.a	4cc]
.	.	.	4cc#
.	.	.	[4dd
=10	=10	=10	=10
2.r	2.f#	2.a]	4dd]
.	.	.	4ee
.	.	.	4cc
=11	=11	=11	=11
4G	4g	4b	4b
4d	12a	4cc	12ff#
.	12g	.	12gg
.	12f#	.	12aa
4G	4g	4b	4gg
=12	=12	=12	=12
4d	12a	4cc	12ff#
.	12g	.	12gg
.	12f#	.	12aa
4G	4g	4b	4gg
4d	12a	4cc	12ff#
.	12g	.	12gg
.	12f#	.	12aa
=13	=13	=13	=13
4G	4g	4b	4gg
4D	4d	4b	4gg
4BB	4d	4b	4gg
=14	=14	=14	=14
4GG	4d	4b	4gg
4r	4r	4r	4r
4r	4r	4r	4r
=15	=15	=15	=15
4AA-	2.r	2.r	2.A-
4E-	.	.	.
4C	.	.	.
=16	=16	=16	=16
4AA-	2.r	2.A-	2.c
4E-	.	.	.
4C	.	.	.
=17	=17	=17	=17
4AA-	2.A-	2.c	2.e-
4E-	.	.	.
4GG-	.	.	.
=18	=18	=18	=18
2.FF	2.A	2.e- 2.c	2g-
.	.	.	8e-
.	.	.	8c
=19	=19	=19	=19
4BB-	4B-	4d-	2.B-
4F	4r	4r	.
4D-	4r	4r	.
=20	=20	=20	=20
4BB-	2.r	2.B-	2.d-
4F	.	.	.
4D-	.	.	.
=21	=21	=21	=21
4BB-	2.B-	2.d-	2.f
4F	.	.	.
4AA-	.	.	.
=22	=22	=22	=22
2.GG	2.B	2.f 2.d	2a-
.	.	.	8f
.	.	.	8d
=23	=23	=23	=23
4C	2.c	2.e-	2.e-
4G	.	.	.
4E-	.	.	.
=24	=24	=24	=24
4BB-	2.B-	2.d-	2.g
4G	.	.	.
4E-	.	.	.
=25	=25	=25	=25
4AA-	2A-	4c	2cc
4AA-	.	4g	.
4AA-	4G	4e-	16cc
.	.	.	16b
.	.	.	16cc
.	.	.	16dd
=26	=26	=26	=26
4AA-	2F#	4c	2ee-
4AA-	.	4B	.
4AA-	4c	4c	4f#
=27	=27	=27	=27
4GG	4d	4B	4g
4r	4r	4r	8ff#
.	.	.	8gg
4r	4F#	8c	8ee-
.	.	8e-	8cc
=28	=28	=28	=28
4GG	4G	4d	8b
.	.	.	8dd
4r	4r	4r	8ff#
.	.	.	8gg
4r	4F#	8c	8ee-
.	.	8e-	8cc
=29	=29	=29	=29
4GG	4G	4d	8b
.	.	.	8dd
4r	4r	4r	8ff#
.	.	.	8gg
4r	8C	4f#	8ee-
.	8E-	.	8cc
=30	=30	=30	=30
4GG	4D	4g	4g
4r	4r	4r	8f#
.	.	.	8g
4r	4r	4r	8f#
.	.	.	8g
=31	=31	=31	=31
2.r	2.r	2.r	8g#
.	.	.	8a
.	.	.	8g#
.	.	.	8a
.	.	.	8f
.	.	.	8d
=32	=32	=32	=32
4CC	2G	2.c	2.e
4C	.	.	.
4C	4c	.	.
=33	=33	=33	=33
4CC	4B	2.d	2.f
4C	4G	.	.
4C	4F	.	.
=34	=34	=34	=34
4CC	4E	2e	2g
4C	4c	.	.
4C	8F	8a	8cc
.	8A	8f	8a
=35	=35	=35	=35
4CC	4c	4e	4g
4r	4r	4r	4cc
4r	4r	4r	4cc
=36	=36	=36	=36
2.r	4c	4e	[2.cc
.	4d	4f	.
.	4e	4g	.
=37	=37	=37	=37
2.r	2.f	2.a	4cc]
.	.	.	4cc#
.	.	.	[4dd
=38	=38	=38	=38
2.r	2.g	2.b	4dd]
.	.	.	4ff
.	.	.	4b
=39	=39	=39	=39
2.r	4c	4e	[2.cc
.	4d	4f	.
.	4e	4g	.
=40	=40	=40	=40
2.r	2.f	2.a-	4cc]
.	.	.	4dd-
.	.	.	[4dd-
=41	=41	=41	=41
2.e-	2.g	2.b-	4dd-]
.	.	.	4ff
.	.	.	4b-
=42	=42	=42	=42
2.A-	2.a-	2.cc	4cc
.	.	.	4ee-
.	.	.	[4aa-
=43	=43	=43	=43
2E-	2e-	2b-	4aa-]
.	.	.	4gg
4E	4e	4dd-	[4bb-
=44	=44	=44	=44
2F	2f	2cc	4bb-]
.	.	.	4aa
4F#	4f#	4ee-	[4ccc
=45	=45	=45	=45
[2.G	4g	2dd	4ccc]
.	4G	.	4bb
.	4A	4cc	4ff#
=46	=46	=46	=46
2.G_	4B	4dd	4gg
.	4dd	4ff	8gg
.	.	.	8aa
.	4cc	4ee	8bb
.	.	.	8ccc
=47	=47	=47	=47
2.G_	4b	4dd	4ddd
.	4d	4f	8bb
.	.	.	8ccc
.	4c	4e	8ddd
.	.	.	8eee
=48	=48	=48	=48
2.G]	4B	4d	4fff
.	4A	4c	4fff
.	4B	4d	4fff
=49	=49	=49	=49
4CC	2.c	2.e	8eee
.	.	.	8ggg
4C	.	.	8fff
.	.	.	8eee
4C	.	.	8ddd
.	.	.	8ccc
=50	=50	=50	=50
4CC	2.d	2.f	8bb
.	.	.	8aa
4C	.	.	8gg
.	.	.	8ff
4C	.	.	8ee
.	.	.	8dd
=51	=51	=51	=51
4CC	2e	2g	8cc
.	.	.	8ee
4C	.	.	8dd
.	.	.	8cc
4C	4f	4f	8b
.	.	.	8a
=52	=52	=52	=52
4CC	4e	2e	8g
.	.	.	8ee
4C	4r	.	8dd
.	.	.	8cc
4C	4r	4f	8b
.	.	.	8a
=53	=53	=53	=53
4CC	2.c	2.e	8g
.	.	.	8gg
4C	.	.	8ff
.	.	.	8ee
4C	.	.	8dd
.	.	.	8cc
=54	=54	=54	=54
4FF	2c	4f	8b
.	.	.	8a
4F	.	4r	8gg#
.	.	.	8aa
4F	4r	8a	8ff
.	.	8f	8dd
=55	=55	=55	=55
4GG	4r	2e	2cc
4G	4g	.	.
4G	4f	4b	4dd
=56	=56	=56	=56
4E	4e	2cc	12gg
.	.	.	12aa
.	.	.	12bb-
4F	4f	.	4aa
4c#	4a	[4a	12ee
.	.	.	12ff
.	.	.	12gg
=57	=57	=57	=57
4d	4dd	4a]	4ff
4B	4g	4dd	12dd
.	.	.	12ee
.	.	.	12ff
4c	4cc	4g	8ee
.	.	.	8r
=58	=58	=58	=58
4F	4f	4a	12dd
.	.	.	12ee
.	.	.	12ff
4r	4r	4r	12a
.	.	.	12b
.	.	.	12cc
4G	4d	4f	12b
.	.	.	12cc
.	.	.	12dd
=59	=59	=59	=59
4C	4e	4e	4cc
4GG	4G	4e	4cc
4EE	4G	4e	4cc
=60	=60	=60	=60
4CC	4G	4e	4cc
4r	4r	4r	4r
4r	4r	4r	4r
=61	=61	=61	=61
*A:	*A:	*A:	*A:
4AA	2.A	2.c#	2.cc#
4AA	.	.	.
4AA	.	.	.
=62	=62	=62	=62
4AA	4B	4d	4dd
4AA	4A	4c#	4cc#
4AA	4B	4d	4dd
=63	=63	=63	=63
4AA	4c#	4e	[2.ee
4AA	4c#	4e	.
4AA	4c#	4e	.
=64	=64	=64	=64
4AA	4c#	4e	4ee]
4r	4r	4r	4gg#
4r	4r	4r	4aa
=65	=65	=65	=65
4AA	2.d	2.f#	2.ee
4A	.	.	.
4A	.	.	.
=66	=66	=66	=66
4A	2.B	2.g#	4dd
4A	.	.	4cc#
4A	.	.	4dd
=67	=67	=67	=67
4A	4c#	4a	[2.cc#
4A	4c#	4e	.
4A	4c#	4e	.
=68	=68	=68	=68
4A	4c#	4e	4cc#]
4r	4r	4r	4dd#
4r	4r	4r	4ee
=69	=69	=69	=69
4G#	4B	4e	[2.ee
4G#	4B	4e	.
4G#	4B	4e	.
=70	=70	=70	=70
4G#	4B	4e	4ee]
4r	4r	4r	4ff#
4r	4r	4r	4gg#
=71	=71	=71	=71
4F#	4A	4e	4aa
4r	4r	4r	4bb
4r	4r	4r	4ccc#
=72	=72	=72	=72
4B	4A 4f#	4d#	4b
4r	4r	4r	4cc#
4r	4r	4A	4dd#
=73	=73	=73	=73
4E	4e	4G#	4ee
4E	4B	4G#	4ee
4E	4G#	4G#	4ee
=74	=74	=74	=74
4E	4E	2G#	2ee
4r	4r	.	.
4r	4r	4B	4dd
=75	=75	=75	=75
4E	4E	4G#	2ee
4r	4r	4r	.
4r	4r	4r	4ee#
=76	=76	=76	=76
4D	2.f#	2.A	2.ff#
4D	.	.	.
4D	.	.	.
=77	=77	=77	=77
4BB	2.e	2.d	4gg#
4BB	.	.	4ff#
4BB	.	.	4gg#
=78	=78	=78	=78
4C#	4e	4e	[2.aa
4C#	4A	4e	.
4C#	4A	4e	.
=79	=79	=79	=79
4C#	4A	4e	4aa]
4r	4r	4r	4cc#
4r	4r	4r	4ee
=80	=80	=80	=80
2.G#	[2.e	2.b	4ee
.	.	.	4dd
.	.	.	4dd
=81	=81	=81	=81
2.A	2.e]	4b	4dd
.	.	4a	4cc#
.	.	4a	4cc#
=82	=82	=82	=82
[2.E	4e	4a	4cc#
.	4e	4g#	4b
.	4e	4g#	4b
=83	=83	=83	=83
2.E]	2e	2.g#	2b
.	4d	.	4b#
=84	=84	=84	=84
4AA	2.c#	2.a	2.cc#
4A	.	.	.
4A	.	.	.
=85	=85	=85	=85
4A	4d	4b	4dd
4A	4c#	4a	4cc#
4A	4d	4b	4dd
=86	=86	=86	=86
4AA	[2.e	4cc#	[2.ee
4A	.	4cc#	.
4A	.	4cc#	.
=87	=87	=87	=87
4A	4e]	4cc#	4ee]
4r	4g#	4r	4gg#
4r	4a	4r	4aa
=88	=88	=88	=88
4AA	[2.f#	4dd	[2.ff#
4A	.	4dd	.
4A	.	4dd	.
=89	=89	=89	=89
4A	4f#]	4dd	4ff#]
4r	4g#	4r	4gg#
4r	4a	4r	4aa
=90	=90	=90	=90
4A	4e	4cc#	4ee
4A	4e	4cc#	4aa
4A	4e	4cc#	4ccc#
=91	=91	=91	=91
4A	4e	4cc#	4eee
4r	4r	4r	4r
4r	4r	4r	4r
=92	=92	=92	=92
4D	4f#	4dd	4ff#
4D	4f#	4a	4aa
4D	4f#	4a	4ddd
=93	=93	=93	=93
4D	4f#	4a	4fff#
4r	4r	4r	4r
4r	4r	4r	4r
=94	=94	=94	=94
4E	4A	4cc#	4eee
4r	4r	4r	4ccc#
4r	4r	4r	4aa
=95	=95	=95	=95
4E	4d	4b	4ee
4r	4r	4r	4ff#
4r	4r	4r	4gg#
=96	=96	=96	=96
4AA	4c#	4a	4aa
4AA	4c#	4e	4aa
4AA	4c#	4e	4aa
=97	=97	=97	=97
4AA	4c#	4e	4aa
4r	4r	4r	4r
4r	4r	4r	4r
=98	=98	=98	=98
2.r	4e	2.g#	2.b
.	4e	.	.
.	4e	.	.
=99	=99	=99	=99
2.r	4d#	4a	4cc
.	4d#	4g#	4b
.	4d#	4a	4cc
=100	=100	=100	=100
2.r	4e	[2.g#	[2.b
.	4e	.	.
.	4e	.	.
=101	=101	=101	=101
2.r	4e	4g#]	4b]
.	4r	4r	4ee
.	4r	4r	4dd
=102	=102	=102	=102
4E	4A	[2.d#	[2.cc
4E	4G#	.	.
4E	4A	.	.
=103	=103	=103	=103
4E	4A	2d#]	4cc]
4E	4B	.	4b
4E	4c	4a	4a
=104	=104	=104	=104
4E	4B	4g#	2.ee
4E	4A	4a	.
4E	4G#	4b	.
=105	=105	=105	=105
4E	4A	2d#	4cc
4E	4B	.	4b
4E	4c	4a	4a
=106	=106	=106	=106
4E	4B	4g#	2.ee
4E	4A	4a	.
4E	4G#	4b	.
=107	=107	=107	=107
4E	4A	2d#	4cc
4E	4B	.	4b
4E	4c	4a	4a
=108	=108	=108	=108
4E	4B	4g#	4ee
4r	4r	4r	4ee
4r	4r	4r	4ee
=109	=109	=109	=109
4E	4G#	4B	4r
4r	4r	4r	4b
4r	4r	4r	4b
=110	=110	=110	=110
4E	4G#	4B	4r
4r	4r	4r	4g#
4r	4r	4r	4g#
=111	=111	=111	=111
4E	4G#	4B	4r
4r	4r	4r	4e
4r	4r	4r	4e
=112	=112	=112	=112
4E	4G#	4B	[2.e
4r	4r	4r	.
4r	4r	4r	.
=113	=113	=113	=113
2.r	2.r	2.r	2.e]
==	==	==	==
*-	*-	*-	*-
!!!RWG1: This file contains only pitch and duration data.
!!!RWG2: Transposing instruments are not transposed.
!!!RWG3: Spines may have incompatible meters.
!!!RWG4: Durations of rests and tied notes may be interpreted.
!!!RWG: Key is interpreted using the Humdrum key tool.
!!!GTL: 6 Quartetti ("Apponyi")
!!!AFT: stage1
!!!END: 1997/04/15
!!!KEY: 1277555991
!!!EMD: Converted from MuseData to Humdrum Dec 16, 2000, by Andreas Kornstaedt using muse2kern.
!!!EMD: Manual editing by Craig Sapp, Nov 2001
